X:976
L:1/16
M:3/8
K:G
 GE | D2E2GA | B2BAG2 | E>F G2G2 | A2GED2 | EFG2A2 | B2g2 (3fed | e6 d>e | [Fe]4 |: de | g4 g4 ed | 
 e2g2ed | e2B2AG | GED2 (3GBd | e4 dc |{c} BAB2 AG | E2B2 A>G | G4 :|

